X:79
T:Planxty Fanny Powers
M:3/4
L:1/4
R:waltz
C:Turlough O'Carolan
K:G
D|:G2D|G>AB|c2B|A2G|GFE|D>FD|F2G|A2c|
B>AG|Bcd|e2A|A>BG|GFE|DGF|G3|1G2D:|2G2d||
|:dB/c/d|dB/c/d|G>BG|GBd|ec/d/e|ec/d/e|A>cA|ABc|
B>cd|efg|f>ga|d2c|B>AG|DGF|G3|1G2d:|2G2||
